resources/haticons/SVG/send_to_mobile.svg

<!-- Generated by IcoMoon.io -->
<svg version="1.1" xmlns="http://www.w3.org/2000/svg" width="24" height="24" viewBox="0 0 24 24">
<title>send_to_mobile</title>
<path d="M17.016 17.016h1.969v3.984q0 0.844-0.586 1.43t-1.383 0.586h-10.031q-0.797 0-1.383-0.586t-0.586-1.43v-18q0-0.844 0.586-1.406t1.383-0.563l10.031-0.047q0.797 0 1.383 0.586t0.586 1.43v3.984h-1.969v-0.984h-10.031v12h10.031v-0.984zM21.984 12l-3.984-3.984v3h-5.016v1.969h5.016v3z"></path>
</svg>

<svg xmlns="http://www.w3.org/2000/svg" width="24" height="24"><path d="M17.016 17.016h1.969V21q0 .844-.586 1.43t-1.383.586H6.985q-.797 0-1.383-.586T5.016 21V3q0-.844.586-1.406t1.383-.563L17.016.984q.797 0 1.383.586T18.985 3v3.984h-1.969V6H6.985v12h10.031v-.984zM21.984 12L18 8.016v3h-5.016v1.969H18v3z"/></svg>
